X:13
T:Boatman, The
T:Fear a'bh\`ata
R:Slow Air
S:Simon Fraser Collection
N:No.104
O:Scottish
M:3/4
L:1/8
Q:1/4=140
K:B_
F>G|B2g2f>g|G2 Bz B>_A|G2F2B>F|G2 Bz d>e|f2g2f>e|d2 gz f>e|
d2B2c>B|B2 Bz:|
|:d>c|B2 B>c d>F|G2 Bz g>f|f2 f>g f>c|d2 fz d>e|f2 g2 f>e|d2 gz f>e|
d2B2c>B|B2 Bz:|

